X:1
T:Nudrisco il mento
T:Nudrisco il mesto
T:Sigismondo d'India
T:Source : Le Musische a 2 voci di S.d'India---Libro II---Venetia---R.Amadino---1615. Editor : André Vierendeels (26/07/15). 
T:Notes : Original clefs : C1, C1, F4 Editorial accisentals above the staff See also "Porto celato" (part 1), "Gia mai" (part 3) and "Cosi per" (part 4).
T:Aria (part 2)
C:Sigismondo d'India
%%score [ 1 2 ] 3
L:1/8
Q:1/4=80
M:4/4
K:F
V:1 treble nm="Soprano 1" snm="S 1"
V:2 treble nm="Soprano 2" snm="S 2"
V:3 bass nm="BC" snm="BC"
V:1
 z4 G4 | GGAB cG AB | cE FG AE FG | AC DE FA Bc | dA BF G4 | A6 A2 | AABc dA Bc | %7
w: Nu-|dris- co'il me- sto cor _ _ _|pien- * * * * * * *|di _ _ _ so- * * *|* * * * spi-|ri, ne|veg- gi'o- ve le- var- * * *|
 d>_e c>d B>c A>B | G2 AB c GAB | cd cd/e/ fe dc | df_ed c4 | B2 _e4 d2- | d2 c2 c2 B/B/A/B/ | %13
w: |* * * mi pos- * *||si'ho- * * * ma-|i, da tan-|* ti'a- cer- * * * *|
 c6 B2 | B4 A4 | c8- | c2 B2 A4 | G4 z2 c2 | dc de fc de | fA Bc dG AB |"^-natural" cE FG AE FG | %21
w: * bi'e|do- lo-|ro-|* si gua-|i, da|tan- * * * ti'a- * * *|cer- * * * bi'e _ _ _|do- * * * lo- * * *|
 AD EF G4 | z2 d2 A4 | G8 |] %24
w: ro- * * * *|si gua-|i.|
V:2
 z8 | z4 G4 | GGAB cG AB | cE FG Ac de | fc d4 c2 | d8 | z2 F2 FFGA | BF GA Bd ef | gB cd _e3 G | %9
w: |Nu-|dris- co'il me- sto cor _ _ _|pien- * * * di _ _ _|so- * spi- *|ri,|ne veg- gi'o- ve le-|var- * * * * * * *|* * * * * mi|
 AB c4 F2 | G/F/G/A/ B4 A2 | B4 z2 B2- | B2 A4 G2 | A6 F2 | G4 F4 | _E8 | D2 G4 ^F2 | G8 | %18
w: pos- * * si'ho-|ma- * * * * *|i, da|_ tan- ti'a-|cer- bi'e|do- lo-|ro-|si gua- *|i,|
 z2 G2 AG AB | c cde fB cd | _eG AB cG AB | cF GA B4 | d2 G4 ^F2 | G8 |] %24
w: da tan- * * *|ti'a- cer- * * * * * *|bi'e _ _ _ do- * * *|lo- * * * ro-|si gua- *|i.|
V:3
 z4 G,4- | G,2 F,2 E,2 D,2 | C,6 B,,2 | A,,2 G,,2 F,,2 F,2- | F,2 D,2 _E,4 | D,8 | %6
 D,2 C,2 B,,2 B,2- | B,2 A,2 G,2 F,2 | _E,6 D,2 | C,4 D,4 | B,,4 F,4 | B,,6 C,2 | %12
"^-natural" D,2 E,2 F,4- | F,2 E,2 D,4 | C,6 C,2 | C,2 B,,A,, G,,2 A,,2 | B,,2 C,2 D,4 | %17
 G,,6 A,,2 | B,,2 G,,2 F,,2 F,2- | F,2 E,2 D,4 | C,6 C,2 | C,2 B,,A,, G,,2 A,,2 | B,,2 C,2 D,4 | %23
 G,,8 |] %24

